X: 1145
T: Old Rocking Chair Jig
C:Eileen McCoy
B: australian traditional tunes wiki
B: kameruka bush dance
B: ralph
M:6/8
L:1/8
R: Jig
Q: 3/8=100
K:Cmaj
V:1 
|:G|"C"EGE CDE|"F"FAF "Dm"D2c|"G7"BdB GAB|"C"cBA "G7"GzG|"C"EGE CDE|"F"FAF "Dm"D2c|"G7"BdB GAB|"C"cccc2:|
|:e/2f/2|"C"gcc "F"acc|"C"gcc cBc|"G7"B/2c/2dB GAB|1"C"cea "G7"g2:|2"C"cccc2:|3"last time"cGE[C3E3]|z3H[C3G3c3]||
% abcbook-tune_id 6342d53ad4a81326f29ac0a4


% abcbook-boost 0
% abcbook-tablature 
% abcbook-transpose 
% abcbook-lastupdated 1665486511452
% abcbook-soundfonts 
% abcbook-repeats 3
% NFF Book 2013

